public/icon/svg/Xunlei.drive.svg

<?xml version="1.0" encoding="UTF-8"?>
<svg width="1024px" height="1024px" viewBox="0 0 1024 1024" version="1.1" xmlns="http://www.w3.org/2000/svg" xmlns:xlink="http://www.w3.org/1999/xlink">
    <title>Xunlei.drive</title>
    <g id="ICON-新版方图标" stroke="none" stroke-width="1" fill="none" fill-rule="evenodd">
        <g id="Xunlei.drive">
            <rect id="蒙版路径" fill="#3475ED" x="0" y="0" width="1024" height="1024"></rect>
            <path d="M89.7623991,230.311419 C136.415225,246.846597 264.56286,304.129181 270.468281,392.710496 C270.468281,425.780854 260.429066,441.134948 261.61015,484.244521 C261.61015,543.298731 296.452134,605.896194 344.876586,644.28143 C396.253749,687.981546 488.968858,718.099193 537.39331,757.074971 C593.49481,793.688581 706.288351,910.025375 706.288351,910.025375 C706.288351,910.025375 622.431373,708.650519 578.140715,634.242215 C649.596309,594.675894 922.426759,556.8812 922.426759,556.8812 C897.623991,532.668973 760.618224,471.843137 677.94233,472.433679 C717.508651,411.607843 793.688581,298.22376 793.688581,298.22376 L767.114187,302.357555 C800.775087,230.311419 837.979239,172.438293 872.821223,125.785467 C724.595156,164.761246 569.282584,246.846597 428.733564,361.411765 C408.064591,330.113033 356.096886,262.791234 292.908881,264.56286 C268.106113,264.56286 259.247982,265.743945 243.303345,275.192618 C197.241061,255.114187 137.005767,234.445213 89.7623991,230.311419 L89.7623991,230.311419 Z" id="路径" fill="#FCFCFC" fill-rule="nonzero"></path>
        </g>
    </g>
</svg>

<svg xmlns="http://www.w3.org/2000/svg" width="1024" height="1024"><g fill="none" fill-rule="evenodd"><path fill="#3475ED" d="M0 0h1024v1024H0z"/><path fill="#FCFCFC" fill-rule="nonzero" d="M89.762 230.311c46.653 16.536 174.8 73.818 180.706 162.4 0 33.07-10.039 48.424-8.858 91.534 0 59.054 34.842 121.651 83.267 160.036 51.377 43.7 144.092 73.818 192.516 112.794 56.102 36.614 168.895 152.95 168.895 152.95s-83.857-201.374-128.147-275.783c71.455-39.566 344.286-77.36 344.286-77.36-24.803-24.213-161.809-85.039-244.485-84.448 39.567-60.826 115.747-174.21 115.747-174.21l-26.575 4.134c33.661-72.047 70.865-129.92 105.707-176.573-148.226 38.976-303.538 121.062-444.087 235.627-20.67-31.299-72.637-98.62-135.825-96.85-24.803 0-33.661 1.182-49.606 10.63-46.062-20.078-106.297-40.747-153.54-44.88"/></g></svg>
